X:1
T:Title
%%score ( 1 2 ) { 3 | 4 }
L:1/8
Q:1/4=118
M:3/4
K:F
V:1 treble nm="Grand Piano, Soprano"
V:2 treble 
V:3 bass nm="Choir Pad, Bass"
V:4 bass 
V:1
 F2 [Ac]2 [GB]2 | [FA]2 [GB]2 [FA]2 | [EG]2 [FA]2 [Ac]2- | [Ac][FA] [FA]2 [EG]2 | [Fc]2 [Fd]3 e | %5
w: By~E.~C.~L.~Browne,~1868 * *|||||
 fd [Fd]2 [Fc]2 | [FA]2 [GB]3 [Ac] | [Bd][GB] B2 A2 | [FA]2 [EG]2 [FA]2 | [GB]2 [FA]2 [EG]2 | %10
w: |||||
 F2 [EG]2 [GB]2- | [GB][EG] [EG]2 F2 | F2 [EG]2 [FA]2 | [GB]2 d2 c2 | FG [FA][GB] [FA]2 | %15
w: |||||
 [EG]2 F4 | z2 [Fd]4- | [Fd]2 [Ec]4- | [Ec]2 [GB]2 [Ac]2 | [GB]2 [FA]4 | z2 [GB]4- | [GB]2 [FA]4- | %22
w: |||||||
 [FA]2 [EG]2 [FA]2 | [EG]2 F4- | F4 z2 |] %25
w: |||
V:2
 x6 | x6 | x6 | x6 | x6 | F2 z2 z2 | x6 | z2 F4 | x6 | x6 | x6 | x6 | x6 | z2 F4 | x6 | x6 | x6 | %17
 x6 | x6 | x6 | x6 | x6 | x6 | x6 | x6 |] %25
V:3
 F,2 C2 C2 | C2 C2[K:treble] C2 | C2 C2 C2- | CC C2 C2 | A,2 B,3 C | DB, B,2 A,2 | C2 G,3 G, | %7
 G,2[K:treble] D2 C2 | C2 C2 C2 | C2 C2 C2 | C2 C2 C2- | CC[K:bass] B,2 A,2 | C2 B,2 A,2 | %13
 G,2 B,2 A,2 | CC C2 C2 | B,2 A,4 | z2[K:bass] B,4- | B,2 G,4- | G,2 C2[K:treble] C2 | C2 C4 | %20
 z2 C4- | C2 C4- | C2 C2[K:bass] C2 | CB, A,4- | A,4 z2 |] %25
V:4
 z2 F,2 F,2 | F,2 C,2 C,2 | C,2 F,2 F,2- | F,F, C,2 C,2 | F,2 B,,3 B,, | B,,2 F,2 F,2 | %6
 F,2 C,3 C, | C,2 F,4 | F,2 C,2 C,2 | C,2 F,2 F,2 | F,2 C,2 C,2- | C,C, C,2 F,2 | F,2 C,2 C,2 | %13
 C,2 B,,2 F,2 | F,F, F,2 C,2 | C,2 F,4 | z2 B,,4- | B,,2 C,4- | C,2 C,2 C,2 | C,2 F,4 | z2 C,4- | %21
 C,2 F,4- | F,2 C,2 C,2 | C,2 F,4- | F,4 z2 |] %25

